X: 104
M:C|
L:1/8
K:D
uA2|vd2 fd efge|ud2fd efge|vdf"1"a"4"d' "3"c'"2"b"1"a"2"g|"1"fgab agfe|\
d2fd efge|d2fd efge|df"1"a"4"d' "3"c'"2"b"1"a"2"g|"1"fgef d2:|
(uAG)|vFAdA FAdA|GBdB GBdB|ABcd efge|fgef dcBA|\


